X:1
T:Marquis of Waterford Hornpipe.  WHL.[169]
T:Marquis of Waterford Hornpipe.  WHL.[169]
T:attributed to James Hill elsewhere
C:attributed to James Hill elsewhere
L:1/8
Q:1/4=140
M:2/2
K:Bb
V:1 treble 
V:1
 FA | BABc Bdfa | bBAB GBFB | E2 gf edcB | (3ABc (3BAG Fedc | BABc Bfga | bBAB GBFB | EGce dcBA | %8
 c2 B2 B2 || de | fdbd fdeg | fdbd fdeg | fdgf edcB | (3ABc (3BAG Fedc | BABc Bfga | bBAB GBeg | %16
 fdBd cAFA |{^c} d2 B2 B2 |] %18

